**kern	**kern	**dynam
*part1	*part1	*part1
*staff2	*staff1	*
*I"Piano	*	*
*clefF4	*clefG2	*
*k[]	*k[]	*
=1	=1	=1
*	*^	*
4DD 4D	4B 4b	8rdd	.
.	.	4f 4g	.
4EE 4E	4c 4cc	.	.
.	.	8e 8g	.
=	=	=	=
4FF 4F	2A 2a	8r	.
.	.	4c 4f	f >
4DD 4D	.	.	.
.	.	8d 8f	.
=	=	=	=
4BBB 4BB	4G 4g	8rg	.
.	.	4d 4f	.
4GGG 4GG	4re	.	]
.	.	8B 8f	.
=	=	=	=
4CC 4C	2e 2ee	8rff	.
.	.	4g 4cc	.
4G 4c	.	.	.
.	.	8g 8cc	.
=	=	=	=
4DD 4D	4B 4b	8r	.
.	.	4f 4g	.
4EE 4E	4c 4cc	.	.
.	.	8e 8g	.
=	=	=	=
4FF	2A 2a	8r	.
.	.	4c 4f	.
4D 4F	.	.	.
.	.	8c 8f	.
=	=	=	=
!	!LO:TX:a:i:t=dim.	!	!
!	!LO:TX:a:i:t=riten.	!	!
4CC#X 4C#X	4B-X 4b-X	8r	mp
.	.	4e 4g	.
4C# 4E	4A 4a	.	.
.	.	8e 8g	.
=	=	=	=
4DD 4D	2A 2a	8r	.
!	!LO:TX:a:i:t=a tempo	!	!
.	.	4d 4f	.
4D 4F	.	.	.
.	.	8d 8f	.
=	=	=	=
4FF 4F	((4c 4cc	8rdd	.
.	.	4d 4g	.
4F 4G	4B)) 4b	.	.
.	.	8d 8g	.
*	*v	*v	*
=	=	=
*-	*-	*-
!!!system-decoration: {(s1,s2)}
